;FLAVOR:Repetier
;TIME:2637
;Generated with Cura_SteamEngine 3.6.0
M190 S50
M104 S210
M109 S210
M82 ;absolute extrusion mode
G28 ;Home
G1 Z15.0 F6000 ;Move the platform down 15mm
;Prime the extruder
G92 E0
G1 F200 E3
G92 E0
G92 E0
G1 F2100 E-6.5
;LAYER_COUNT:45
;LAYER:0
M107
G0 F3000 X136.264 Y72.678 Z0.3
;TYPE:SKIRT
G1 F2100 E0
G1 F1800 X136.79 Y71.837 E0.04949
G1 X137.242 Y71.189 E0.08891
G1 X138.016 Y70.332 E0.14652
G1 X138.726 Y69.654 E0.1955
G1 X139.324 Y69.138 E0.2349
G1 X140.247 Y68.521 E0.29029
G1 X141.025 Y68.077 E0.33498
G1 X146.764 Y57.556 E0.93289
G1 X146.726 Y57.239 E0.94882
G1 X146.73 Y56.096 E1.00584
G1 X146.806 Y55.104 E1.05548
G1 X146.906 Y54.321 E1.09486
G1 X147.197 Y53.194 E1.15293
G1 X147.517 Y52.251 E1.20261
G1 X147.808 Y51.517 E1.242
G1 X148.37 Y50.496 E1.30015
G1 X148.912 Y49.665 E1.34965
G1 X149.376 Y49.026 E1.38904
G1 X150.141 Y48.207 E1.44496
G1 X150.872 Y47.529 E1.4947
G1 X151.477 Y47.022 E1.53408
G1 X152.463 Y46.388 E1.59256
G1 X153.335 Y45.916 E1.64203
G1 X154.048 Y45.576 E1.68144
G1 X155.136 Y45.214 E1.73865
G1 X156.097 Y44.971 E1.7881
G1 X156.871 Y44.816 E1.82748
G1 X158.017 Y44.733 E1.88481
G1 X159.008 Y44.734 E1.93425
G1 X159.797 Y44.775 E1.97366
G1 X160.907 Y44.971 E2.0299
G1 X161.867 Y45.213 E2.07929
G1 X162.622 Y45.444 E2.11868
G1 X163.697 Y45.929 E2.17752
G1 X164.571 Y46.406 E2.2272
G1 X165.244 Y46.819 E2.26659
G1 X165.76 Y47.206 E2.29877
G1 X166.143 Y47.518 E2.32341
G1 X166.864 Y48.184 E2.37238
G1 X167.208 Y48.545 E2.39726
G1 X167.723 Y49.144 E2.43667
G1 X168.096 Y49.668 E2.46876
G1 X168.64 Y50.503 E2.51848
G1 X169.037 Y51.186 E2.55789
G1 X169.497 Y52.271 E2.61669
G1 X169.814 Y53.212 E2.66623
G1 X170.028 Y53.972 E2.70562
G1 X170.2 Y55.113 E2.76319
G1 X170.275 Y56.104 E2.81277
G1 X170.294 Y56.894 E2.85219
G1 X170.183 Y58.021 E2.90869
G1 X170.014 Y58.999 E2.95821
G1 X169.84 Y59.77 E2.99764
G1 X169.442 Y60.869 E3.05595
G1 X169.033 Y61.779 E3.10573
G1 X168.674 Y62.482 E3.14511
G1 X168.303 Y63.027 E3.178
G1 X168.303 Y134.952 E6.76636
G1 X168.451 Y135.157 E6.77897
G1 X169.006 Y136.168 E6.83651
G1 X169.418 Y137.072 E6.88607
G1 X169.708 Y137.806 E6.92545
G1 X169.994 Y138.909 E6.9823
G1 X170.17 Y139.875 E7.03128
G1 X170.272 Y140.658 E7.07068
G1 X170.279 Y141.79 E7.12715
G1 X170.214 Y142.768 E7.17605
G1 X170.122 Y143.553 E7.21549
G1 X169.853 Y144.649 E7.27179
G1 X169.55 Y145.587 E7.32097
G1 X169.27 Y146.325 E7.36035
G1 X168.978 Y146.92 E7.39341
G1 X168.74 Y147.357 E7.41824
G1 X168.328 Y148.03 E7.45761
G1 X167.938 Y148.551 E7.49008
G1 X167.315 Y149.316 E7.5393
G1 X166.786 Y149.903 E7.57872
G1 X165.93 Y150.643 E7.63517
G1 X165.143 Y151.23 E7.68415
G1 X164.487 Y151.67 E7.72356
G1 X163.983 Y151.924 E7.75172
G1 X158.238 Y162.453 E8.35012
G1 X158.286 Y162.89 E8.37205
G1 X158.274 Y163.975 E8.42619
G1 X158.196 Y164.939 E8.47444
G1 X158.092 Y165.722 E8.51385
G1 X157.951 Y166.343 E8.54562
G1 X157.826 Y166.806 E8.56954
G1 X157.514 Y167.728 E8.6181
G1 X157.331 Y168.175 E8.6422
G1 X156.996 Y168.89 E8.68159
G1 X156.707 Y169.386 E8.71023
G1 X156.194 Y170.198 E8.75815
G1 X155.739 Y170.843 E8.79753
G1 X154.997 Y171.664 E8.85274
G1 X154.302 Y172.33 E8.90077
G1 X153.705 Y172.846 E8.94013
G1 X152.804 Y173.453 E8.99433
G1 X151.962 Y173.939 E9.04284
G1 X151.259 Y174.299 E9.08224
G1 X150.219 Y174.68 E9.1375
G1 X149.294 Y174.946 E9.18552
G1 X148.525 Y175.126 E9.22492
G1 X147.446 Y175.244 E9.27907
G1 X146.483 Y175.282 E9.32715
G1 X145.693 Y175.273 E9.36657
G1 X144.613 Y175.13 E9.42092
G1 X143.669 Y174.937 E9.46899
G1 X142.904 Y174.74 E9.5084
G1 X142.273 Y174.512 E9.54188
G1 X141.824 Y174.328 E9.56608
G1 X141.11 Y173.992 E9.60545
G1 X140.614 Y173.704 E9.63407
G1 X139.978 Y173.302 E9.67161
G1 X68.046 Y173.302 E13.26031
G1 X67.787 Y173.487 E13.27619
G1 X66.789 Y174.027 E13.3328
G1 X65.877 Y174.438 E13.38271
G1 X65.141 Y174.726 E13.42214
G1 X64.006 Y175.012 E13.48053
G1 X63.027 Y175.182 E13.5301
G1 X62.244 Y175.278 E13.56946
G1 X61.096 Y175.274 E13.62674
G1 X60.106 Y175.198 E13.67627
G1 X59.323 Y175.098 E13.71565
G1 X58.213 Y174.813 E13.77283
G1 X57.278 Y174.498 E13.82205
G1 X56.543 Y174.208 E13.86147
G1 X55.524 Y173.65 E13.91943
G1 X54.682 Y173.104 E13.9695
G1 X54.042 Y172.642 E14.00888
G1 X53.554 Y172.215 E14.04123
G1 X53.195 Y171.874 E14.06593
G1 X52.512 Y171.136 E14.1161
G1 X52.192 Y170.742 E14.14142
G1 X51.726 Y170.105 E14.1808
G1 X51.387 Y169.538 E14.21376
G1 X50.915 Y168.666 E14.26323
G1 X50.575 Y167.953 E14.30263
G1 X50.208 Y166.847 E14.36077
G1 X49.967 Y165.884 E14.4103
G1 X49.815 Y165.109 E14.4497
G1 X49.734 Y163.982 E14.50607
G1 X49.735 Y162.992 E14.55546
G1 X49.776 Y162.203 E14.59488
G1 X49.975 Y161.08 E14.65178
G1 X50.219 Y160.119 E14.70124
G1 X50.452 Y159.365 E14.74062
G1 X50.934 Y158.3 E14.79894
G1 X51.413 Y157.423 E14.84879
G1 X51.826 Y156.75 E14.88819
G1 X52.55 Y155.846 E14.94597
G1 X53.227 Y155.119 E14.99553
G1 X53.793 Y154.569 E15.0349
G1 X54.706 Y153.881 E15.09194
G1 X55.543 Y153.341 E15.14163
G1 X56.228 Y152.947 E15.18106
G1 X57.303 Y152.496 E15.23922
G1 X58.247 Y152.181 E15.28887
G1 X59.008 Y151.969 E15.32828
G1 X60.15 Y151.801 E15.38587
G1 X61.139 Y151.729 E15.43534
G1 X61.928 Y151.711 E15.47471
G1 X63.055 Y151.826 E15.53123
G1 X64.034 Y151.998 E15.58082
G1 X64.804 Y152.174 E15.62023
G1 X65.907 Y152.577 E15.67881
G1 X66.815 Y152.989 E15.72856
G1 X67.517 Y153.351 E15.76797
G1 X68.029 Y153.702 E15.79894
G1 X136.703 Y153.702 E19.22509
G1 X136.703 Y85.051 E22.65011
G1 X136.541 Y84.826 E22.66394
G1 X135.995 Y83.828 E22.72069
G1 X135.585 Y82.927 E22.77008
G1 X135.295 Y82.192 E22.8095
G1 X135.011 Y81.093 E22.86613
G1 X134.835 Y80.126 E22.91517
G1 X134.733 Y79.343 E22.95456
G1 X134.726 Y78.211 E23.01104
G1 X134.791 Y77.234 E23.05989
G1 X134.883 Y76.45 E23.09927
G1 X135.152 Y75.354 E23.15557
G1 X135.455 Y74.416 E23.20475
G1 X135.735 Y73.678 E23.24413
G1 X136.264 Y72.678 E23.30057
G0 F3000 X136.603 Y72.89
G1 F1800 X137.129 Y72.049 E23.35006
G1 X137.57 Y71.419 E23.38843
G1 X138.292 Y70.621 E23.44212
G1 X139.002 Y69.943 E23.49109
G1 X139.586 Y69.442 E23.52948
G1 X140.445 Y68.868 E23.58103
G1 X141.3 Y68.38 E23.63014
G1 X141.321 Y68.37 E23.6313
G1 X147.177 Y57.633 E24.24146
G1 X147.124 Y57.191 E24.26367
G1 X147.129 Y56.127 E24.31676
G1 X147.205 Y55.135 E24.36639
G1 X147.303 Y54.372 E24.40477
G1 X147.575 Y53.322 E24.45889
G1 X147.895 Y52.379 E24.50857
G1 X148.18 Y51.665 E24.54692
G1 X148.705 Y50.714 E24.60112
G1 X149.247 Y49.883 E24.65062
G1 X149.7 Y49.262 E24.68896
G1 X150.413 Y48.5 E24.74103
G1 X151.144 Y47.822 E24.79077
G1 X151.734 Y47.329 E24.82913
G1 X152.653 Y46.74 E24.88359
G1 X153.525 Y46.268 E24.93305
G1 X154.22 Y45.938 E24.97144
G1 X155.234 Y45.602 E25.02473
G1 X156.195 Y45.359 E25.07419
G1 X156.949 Y45.209 E25.11254
G1 X158.016 Y45.133 E25.16591
G1 X159.007 Y45.134 E25.21535
G1 X159.776 Y45.175 E25.25377
G1 X160.809 Y45.358 E25.30611
G1 X161.769 Y45.6 E25.3555
G1 X162.504 Y45.827 E25.39388
G1 X163.505 Y46.28 E25.44869
G1 X164.379 Y46.757 E25.49837
G1 X165.034 Y47.16 E25.53674
G1 X165.508 Y47.516 E25.56631
G1 X165.891 Y47.828 E25.59096
G1 X166.574 Y48.46 E25.63738
G1 X166.918 Y48.821 E25.66226
G1 X167.419 Y49.405 E25.70065
G1 X167.761 Y49.887 E25.73014
G1 X168.305 Y50.722 E25.77985
G1 X168.691 Y51.387 E25.81822
G1 X169.118 Y52.399 E25.87301
G1 X169.435 Y53.34 E25.92255
G1 X169.642 Y54.08 E25.96089
G1 X169.801 Y55.144 E26.01456
G1 X169.876 Y56.135 E26.06414
G1 X169.894 Y56.903 E26.10247
G1 X169.789 Y57.953 E26.15512
G1 X169.62 Y58.931 E26.20463
G1 X169.45 Y59.681 E26.243
G1 X169.078 Y60.705 E26.29735
G1 X168.669 Y61.615 E26.34713
G1 X168.317 Y62.299 E26.38551
G1 X167.903 Y62.906 E26.42216
G1 X167.903 Y135.082 E30.02304
G1 X168.126 Y135.391 E30.04205
G1 X168.642 Y136.334 E30.09568
G1 X169.054 Y137.238 E30.14524
G1 X169.336 Y137.954 E30.18364
G1 X169.6 Y138.981 E30.23654
G1 X169.776 Y139.947 E30.28553
G1 X169.875 Y140.709 E30.32386
G1 X169.88 Y141.764 E30.3765
G1 X169.815 Y142.742 E30.4254
G1 X169.724 Y143.506 E30.46378
G1 X169.473 Y144.526 E30.51619
G1 X169.17 Y145.464 E30.56537
G1 X168.896 Y146.182 E30.60371
G1 X168.627 Y146.728 E30.63407
G1 X168.389 Y147.165 E30.6589
G1 X167.986 Y147.821 E30.69731
G1 X167.628 Y148.299 E30.7271
G1 X167.005 Y149.064 E30.77633
G1 X166.489 Y149.634 E30.81468
G1 X165.691 Y150.323 E30.86728
G1 X164.904 Y150.91 E30.91627
G1 X164.265 Y151.337 E30.95461
G1 X163.689 Y151.626 E30.98676
G1 X157.827 Y162.372 E31.59746
G1 X157.888 Y162.934 E31.62566
G1 X157.875 Y163.943 E31.67601
G1 X157.797 Y164.907 E31.72426
G1 X157.695 Y165.669 E31.76261
G1 X157.565 Y166.239 E31.79178
G1 X157.44 Y166.702 E31.81571
G1 X157.144 Y167.577 E31.86179
G1 X156.961 Y168.024 E31.88589
G1 X156.633 Y168.719 E31.92423
G1 X156.369 Y169.172 E31.95039
G1 X155.856 Y169.984 E31.99831
G1 X155.412 Y170.612 E32.03668
G1 X154.72 Y171.375 E32.08807
G1 X154.025 Y172.041 E32.13609
G1 X153.443 Y172.543 E32.17444
G1 X152.604 Y173.107 E32.22487
G1 X151.762 Y173.593 E32.27337
G1 X151.077 Y173.942 E32.31173
G1 X150.108 Y174.296 E32.3632
G1 X149.183 Y174.562 E32.41122
G1 X148.434 Y174.736 E32.44958
G1 X147.43 Y174.844 E32.49996
G1 X146.467 Y174.882 E32.54804
G1 X145.698 Y174.873 E32.58641
G1 X144.693 Y174.738 E32.637
G1 X143.749 Y174.545 E32.68507
G1 X143.004 Y174.352 E32.72346
G1 X142.425 Y174.142 E32.75419
G1 X141.976 Y173.958 E32.7784
G1 X141.28 Y173.63 E32.81679
G1 X140.828 Y173.366 E32.8429
G1 X140.094 Y172.902 E32.88622
G1 X67.918 Y172.902 E36.4871
G1 X67.554 Y173.161 E36.50939
G1 X66.624 Y173.663 E36.56211
G1 X65.712 Y174.074 E36.61202
G1 X64.996 Y174.353 E36.65036
G1 X63.938 Y174.618 E36.70477
G1 X62.959 Y174.788 E36.75435
G1 X62.195 Y174.88 E36.79274
G1 X61.127 Y174.875 E36.84602
G1 X60.137 Y174.799 E36.89556
G1 X59.374 Y174.701 E36.93394
G1 X58.34 Y174.434 E36.98721
G1 X57.405 Y174.119 E37.03644
G1 X56.69 Y173.836 E37.0748
G1 X55.742 Y173.315 E37.12877
G1 X54.9 Y172.769 E37.17884
G1 X54.277 Y172.317 E37.21724
G1 X53.83 Y171.925 E37.2469
G1 X53.471 Y171.584 E37.2716
G1 X52.823 Y170.884 E37.31919
G1 X52.503 Y170.49 E37.34451
G1 X52.05 Y169.869 E37.38286
G1 X51.739 Y169.348 E37.41313
G1 X51.267 Y168.476 E37.4626
G1 X50.937 Y167.781 E37.50099
G1 X50.596 Y166.75 E37.55516
G1 X50.355 Y165.787 E37.60469
G1 X50.208 Y165.032 E37.64306
G1 X50.134 Y163.983 E37.69553
G1 X50.135 Y162.993 E37.74492
G1 X50.176 Y162.224 E37.78334
G1 X50.363 Y161.179 E37.8363
G1 X50.607 Y160.218 E37.88577
G1 X50.834 Y159.483 E37.92415
G1 X51.285 Y158.492 E37.97847
G1 X51.764 Y157.615 E38.02832
G1 X52.167 Y156.96 E38.06669
G1 X52.842 Y156.119 E38.12049
G1 X53.519 Y155.392 E38.17005
G1 X54.072 Y154.857 E38.20844
G1 X54.923 Y154.217 E38.26156
G1 X55.76 Y153.677 E38.31126
G1 X56.427 Y153.294 E38.34963
G1 X57.43 Y152.875 E38.40386
G1 X58.374 Y152.56 E38.45351
G1 X59.115 Y152.355 E38.49187
G1 X60.179 Y152.2 E38.54551
G1 X61.168 Y152.128 E38.59498
G1 X61.937 Y152.112 E38.63336
G1 X62.985 Y152.22 E38.68592
G1 X63.964 Y152.392 E38.73551
G1 X64.714 Y152.564 E38.7739
G1 X65.742 Y152.941 E38.82853
G1 X66.65 Y153.353 E38.87827
G1 X67.333 Y153.707 E38.91665
G1 X67.907 Y154.102 E38.95141
G1 X137.103 Y154.102 E42.40362
G1 X137.103 Y84.923 E45.85497
G1 X136.866 Y84.592 E45.87528
G1 X136.36 Y83.662 E45.9281
G1 X135.95 Y82.761 E45.97749
G1 X135.668 Y82.045 E46.01588
G1 X135.405 Y81.021 E46.06863
G1 X135.229 Y80.054 E46.11766
G1 X135.13 Y79.291 E46.15605
G1 X135.125 Y78.238 E46.20858
G1 X135.19 Y77.261 E46.25743
G1 X135.281 Y76.497 E46.29582
G1 X135.532 Y75.477 E46.34822
G1 X135.835 Y74.539 E46.3974
G1 X136.109 Y73.821 E46.43574
G1 X136.603 Y72.89 E46.48832
G0 F3000 X136.942 Y73.102
G1 F1800 X137.468 Y72.261 E46.53781
G1 X137.898 Y71.649 E46.57513
G1 X138.569 Y70.91 E46.62493
G1 X139.279 Y70.232 E46.67391
G1 X139.846 Y69.745 E46.7112
G1 X140.643 Y69.216 E46.75892
G1 X141.498 Y68.728 E46.80804
G1 X141.612 Y68.671 E46.81439
G1 X147.59 Y57.713 E47.43715
G1 X147.522 Y57.143 E47.46579
G1 X147.527 Y56.157 E47.51498
G1 X147.603 Y55.165 E47.56462
G1 X147.7 Y54.424 E47.6019
G1 X147.954 Y53.451 E47.65207
G1 X148.274 Y52.508 E47.70175
G1 X148.552 Y51.813 E47.7391
G1 X149.04 Y50.933 E47.7893
G1 X149.582 Y50.102 E47.8388
G1 X150.023 Y49.498 E47.87611
G1 X150.685 Y48.794 E47.92432
G1 X151.416 Y48.116 E47.97406
G1 X151.991 Y47.637 E48.0114
G1 X152.844 Y47.092 E48.0619
G1 X153.716 Y46.62 E48.11137
G1 X154.392 Y46.3 E48.14868
G1 X155.332 Y45.99 E48.19806
G1 X156.293 Y45.747 E48.24752
G1 X157.027 Y45.602 E48.28485
G1 X158.016 Y45.533 E48.33431
G1 X159.007 Y45.534 E48.38375
G1 X159.754 Y45.575 E48.42107
G1 X160.711 Y45.746 E48.46957
G1 X161.671 Y45.988 E48.51897
G1 X162.386 Y46.21 E48.55632
G1 X163.313 Y46.632 E48.60713
G1 X164.187 Y47.109 E48.65681
G1 X164.824 Y47.501 E48.69412
G1 X165.255 Y47.826 E48.72105
G1 X165.638 Y48.138 E48.7457
G1 X166.285 Y48.736 E48.78965
G1 X166.629 Y49.097 E48.81453
G1 X167.115 Y49.665 E48.85183
G1 X167.426 Y50.105 E48.87871
G1 X167.97 Y50.94 E48.92843
G1 X168.344 Y51.588 E48.96576
G1 X168.739 Y52.526 E49.01653
G1 X169.056 Y53.467 E49.06607
G1 X169.256 Y54.188 E49.1034
G1 X169.402 Y55.174 E49.15313
G1 X169.477 Y56.165 E49.20271
G1 X169.494 Y56.913 E49.24004
G1 X169.395 Y57.885 E49.28878
G1 X169.226 Y58.863 E49.3383
G1 X169.059 Y59.592 E49.37561
G1 X168.713 Y60.541 E49.426
G1 X168.304 Y61.451 E49.47578
G1 X167.961 Y62.116 E49.51311
G1 X167.503 Y62.785 E49.55356
G1 X167.503 Y135.211 E53.16691
G1 X167.801 Y135.625 E53.19236
G1 X168.278 Y136.5 E53.24207
G1 X168.69 Y137.404 E53.29164
G1 X168.963 Y138.1 E53.32894
G1 X169.207 Y139.052 E53.37797
G1 X169.383 Y140.018 E53.42696
G1 X169.477 Y140.76 E53.46427
G1 X169.481 Y141.737 E53.51301
G1 X169.416 Y142.715 E53.56191
G1 X169.326 Y143.458 E53.59925
G1 X169.092 Y144.403 E53.64782
G1 X168.789 Y145.341 E53.697
G1 X168.521 Y146.039 E53.7343
G1 X168.275 Y146.537 E53.76201
G1 X168.037 Y146.974 E53.78684
G1 X167.645 Y147.611 E53.82416
G1 X167.318 Y148.046 E53.85131
G1 X166.695 Y148.811 E53.90053
G1 X166.192 Y149.365 E53.93786
G1 X165.452 Y150.002 E53.98657
G1 X164.665 Y150.589 E54.03555
G1 X164.042 Y151.004 E54.0729
G1 X163.397 Y151.326 E54.10887
G1 X157.416 Y162.29 E54.73196
G1 X157.489 Y162.977 E54.76643
G1 X157.476 Y163.911 E54.81303
G1 X157.398 Y164.875 E54.86128
G1 X157.298 Y165.616 E54.89858
G1 X157.179 Y166.135 E54.92515
G1 X157.054 Y166.598 E54.94907
G1 X156.774 Y167.425 E54.99263
G1 X156.591 Y167.872 E55.01673
G1 X156.271 Y168.548 E55.05404
G1 X156.031 Y168.959 E55.07779
G1 X155.518 Y169.771 E55.12571
G1 X155.085 Y170.381 E55.16303
G1 X154.443 Y171.086 E55.2106
G1 X153.748 Y171.752 E55.25862
G1 X153.181 Y172.24 E55.29595
G1 X152.404 Y172.761 E55.34262
G1 X151.562 Y173.247 E55.39112
G1 X150.895 Y173.585 E55.42843
G1 X149.998 Y173.911 E55.47604
G1 X149.073 Y174.177 E55.52406
G1 X148.344 Y174.345 E55.56138
G1 X147.414 Y174.445 E55.60805
G1 X146.451 Y174.483 E55.65613
G1 X145.703 Y174.472 E55.69345
G1 X144.773 Y174.346 E55.74027
G1 X143.829 Y174.153 E55.78835
G1 X143.105 Y173.964 E55.82568
G1 X142.577 Y173.772 E55.85371
G1 X142.128 Y173.588 E55.87791
G1 X141.452 Y173.268 E55.91523
G1 X141.042 Y173.028 E55.93893
G1 X140.232 Y172.516 E55.98674
G1 X140.212 Y172.502 E55.98796
G1 X67.791 Y172.502 E59.60105
G1 X67.323 Y172.834 E59.62968
G1 X66.46 Y173.298 E59.67856
G1 X65.548 Y173.709 E59.72847
G1 X64.851 Y173.979 E59.76576
G1 X63.87 Y174.224 E59.81621
G1 X62.891 Y174.394 E59.86578
G1 X62.148 Y174.482 E59.90311
G1 X61.157 Y174.476 E59.95255
G1 X60.167 Y174.4 E60.00209
G1 X59.425 Y174.303 E60.03942
G1 X58.468 Y174.055 E60.08874
G1 X57.533 Y173.74 E60.13797
G1 X56.838 Y173.463 E60.17529
G1 X55.959 Y172.979 E60.22536
G1 X55.117 Y172.433 E60.27542
G1 X54.512 Y171.993 E60.31274
